icons/media/disc-arrow-left-1-24.svg

<svg width="24" height="24" viewBox="0 0 24 24" fill="none" xmlns="http://www.w3.org/2000/svg">
<path d="M19.2224 22.6389L21.3573 20.2947H15.7474C15.5492 20.2947 15.3591 20.2115 15.2189 20.0634C15.0787 19.9154 15 19.7146 15 19.5052C15 19.2958 15.0787 19.095 15.2189 18.9469C15.3591 18.7989 15.5492 18.7157 15.7474 18.7157H21.3573L19.2224 16.3715C19.1496 16.301 19.0907 16.216 19.0492 16.1213C19.0077 16.0267 18.9843 15.9243 18.9805 15.8201C18.9767 15.7158 18.9924 15.6118 19.0269 15.5141C19.0613 15.4163 19.1138 15.3267 19.1812 15.2505C19.2486 15.1743 19.3297 15.1129 19.4197 15.07C19.5097 15.027 19.6068 15.0034 19.7056 15.0003C19.8043 14.9973 19.9026 15.015 19.9948 15.0523C20.087 15.0896 20.1713 15.1459 20.2428 15.2178L23.7629 18.9283C23.8377 19.0022 23.8974 19.0915 23.9382 19.1907C23.979 19.29 24 19.397 24 19.5052C24 19.6134 23.979 19.7204 23.9382 19.8196C23.8974 19.9188 23.8377 20.0082 23.7629 20.082L20.2428 23.7925C20.0976 23.9331 19.9057 24.0075 19.7089 23.9994C19.5121 23.9913 19.3262 23.9015 19.1917 23.7495C19.0572 23.5975 18.985 23.3955 18.9908 23.1875C18.9965 22.9795 19.0797 22.7824 19.2224 22.6389Z" fill="black"/>
<path fill-rule="evenodd" clip-rule="evenodd" d="M12 2.5C6.75329 2.5 2.5 6.75329 2.5 12C2.5 17.2467 6.75329 21.5 12 21.5C12.4142 21.5 12.75 21.8358 12.75 22.25C12.75 22.6642 12.4142 23 12 23C5.92487 23 1 18.0751 1 12C1 5.92487 5.92487 1 12 1C18.0751 1 23 5.92487 23 12C23 12.4142 22.6642 12.75 22.25 12.75C21.8358 12.75 21.5 12.4142 21.5 12C21.5 6.75329 17.2467 2.5 12 2.5Z" fill="black"/>
<path fill-rule="evenodd" clip-rule="evenodd" d="M12 13.5C12.8284 13.5 13.5 12.8284 13.5 12C13.5 11.1716 12.8284 10.5 12 10.5C11.1716 10.5 10.5 11.1716 10.5 12C10.5 12.8284 11.1716 13.5 12 13.5ZM12 15C13.6569 15 15 13.6569 15 12C15 10.3431 13.6569 9 12 9C10.3431 9 9 10.3431 9 12C9 13.6569 10.3431 15 12 15Z" fill="black"/>
</svg>

<svg xmlns="http://www.w3.org/2000/svg" width="24" height="24"><path d="M19.222 22.639l2.135-2.344h-5.61a.728.728 0 01-.528-.232.812.812 0 01-.219-.558c0-.21.079-.41.219-.558a.728.728 0 01.528-.231h5.61l-2.135-2.345a.825.825 0 01-.041-1.121.75.75 0 01.239-.18.714.714 0 01.823.148l3.52 3.71a.792.792 0 01.175.263.828.828 0 01-.175.891l-3.52 3.71a.724.724 0 01-.534.207.731.731 0 01-.517-.25.815.815 0 01-.201-.561.81.81 0 01.231-.55z"/><path fill-rule="evenodd" d="M12 2.5a9.5 9.5 0 100 19 .75.75 0 010 1.5C5.925 23 1 18.075 1 12S5.925 1 12 1s11 4.925 11 11a.75.75 0 01-1.5 0A9.5 9.5 0 0012 2.5z"/><path fill-rule="evenodd" d="M12 13.5a1.5 1.5 0 100-3 1.5 1.5 0 000 3zm0 1.5a3 3 0 100-6 3 3 0 000 6z"/></svg>
